plugins/woocommerce-paypal-payments/modules/ppcp-wc-gateway/assets/images/ratepay.svg

<svg width="81" height="14" viewBox="0 0 81 14" fill="none" xmlns="http://www.w3.org/2000/svg">
<path d="M31.5618 3.01041V11.7374H28.7859V10.5079C28.6781 10.7171 28.5324 10.9072 28.3486 11.0783C28.1648 11.2494 27.962 11.4015 27.7211 11.5283C27.4866 11.655 27.2331 11.7565 26.9479 11.8388C26.6691 11.9212 26.3966 11.9593 26.1114 11.9593C25.4839 11.9593 24.9072 11.8388 24.3812 11.6043C23.8551 11.3699 23.4052 11.053 23.0312 10.641C22.6573 10.2354 22.3721 9.75374 22.163 9.18968C21.9538 8.62562 21.8524 8.02354 21.8524 7.37076C21.8524 6.71797 21.9538 6.10955 22.163 5.55183C22.3721 4.98778 22.6636 4.51245 23.0312 4.1005C23.4052 3.69488 23.8551 3.378 24.3812 3.13717C24.9072 2.89633 25.4839 2.78225 26.1114 2.78225C26.3902 2.78225 26.6627 2.82028 26.9479 2.90267C27.2268 2.98506 27.4803 3.08646 27.7211 3.21956C27.9556 3.35265 28.1648 3.51109 28.3486 3.68855C28.5324 3.87234 28.6718 4.06247 28.7859 4.2526V3.01041H31.5618ZM26.7071 9.60797C27.024 9.60797 27.3029 9.54459 27.5564 9.42417C27.8099 9.30376 28.0254 9.14532 28.2091 8.94251C28.3929 8.74604 28.5324 8.50521 28.6338 8.23268C28.7352 7.96016 28.7859 7.66863 28.7859 7.37076C28.7859 7.07288 28.7288 6.78135 28.6338 6.5215C28.5324 6.26166 28.3866 6.02082 28.2091 5.81168C28.0254 5.60254 27.8099 5.43775 27.5564 5.32368C27.3029 5.20326 27.024 5.13988 26.7071 5.13988C26.3902 5.13988 26.1114 5.20326 25.8579 5.32368C25.6043 5.44409 25.3889 5.60254 25.2051 5.81168C25.0213 6.02082 24.8818 6.25532 24.7804 6.5215C24.679 6.78135 24.6283 7.07288 24.6283 7.37076C24.6283 7.66863 24.6854 7.96016 24.7804 8.23268C24.8818 8.50521 25.0276 8.7397 25.2051 8.94251C25.3889 9.13898 25.6043 9.30376 25.8579 9.42417C26.105 9.54459 26.3966 9.60797 26.7071 9.60797ZM42.1014 8.04889C42.1077 8.30874 42.1584 8.56858 42.2218 8.80308C42.2852 9.03757 42.3929 9.24672 42.545 9.41784C42.6971 9.58896 42.8873 9.73472 43.1345 9.83613C43.3816 9.93753 43.6795 9.98823 44.0407 9.98823C44.5224 9.98823 44.89 9.88683 45.1372 9.6967C45.3843 9.50656 45.5555 9.27207 45.6569 8.98687H48.3757C48.3124 9.39249 48.1793 9.78542 47.9511 10.1467C47.723 10.5079 47.4314 10.8248 47.0638 11.0973C46.6899 11.3699 46.2589 11.5853 45.7583 11.7438C45.2576 11.8959 44.6872 11.9783 44.0661 11.9783C43.3056 11.9783 42.6338 11.8705 42.0444 11.6424C41.455 11.4142 40.967 11.0973 40.5677 10.6917C40.1684 10.2861 39.8705 9.79176 39.6614 9.23404C39.4522 8.66999 39.3508 8.05523 39.3508 7.37709C39.3508 6.73065 39.4522 6.1349 39.6487 5.58352C39.8452 5.03214 40.1494 4.54414 40.536 4.12585C40.9226 3.70756 41.4169 3.38434 41.9873 3.13717C42.5577 2.89 43.2295 2.77592 43.99 2.77592C44.6809 2.77592 45.2956 2.88366 45.847 3.09914C46.3984 3.31462 46.8737 3.60616 47.2603 3.96741C47.6469 4.32866 47.9574 4.75328 48.1666 5.23495C48.3757 5.71661 48.4835 6.22363 48.4835 6.756C48.4835 6.93979 48.4835 7.12992 48.4771 7.33907C48.4708 7.54821 48.4391 7.78271 48.3947 8.04889H42.1014ZM43.971 4.62019C43.426 4.62019 42.9823 4.7723 42.6274 5.08918C42.2725 5.40607 42.1014 5.86238 42.1014 6.44545H45.7646C45.7646 5.87506 45.5998 5.43142 45.2639 5.10186C44.928 4.78497 44.4971 4.62019 43.971 4.62019ZM69.6895 3.10548V11.8325H66.9135V10.603C66.8058 10.8121 66.66 11.0023 66.4762 11.1734C66.2924 11.3445 66.0896 11.4966 65.8488 11.6234C65.6143 11.7501 65.3608 11.8515 65.0756 11.9339C64.7967 12.0163 64.5242 12.0543 64.239 12.0543C63.6116 12.0543 63.0349 11.9339 62.5088 11.6994C61.9828 11.4649 61.5328 11.148 61.1589 10.7361C60.785 10.3305 60.4998 9.8488 60.2906 9.28474C60.0815 8.72069 59.9801 8.11861 59.9801 7.46582C59.9801 6.81304 60.0815 6.20462 60.2906 5.6469C60.4998 5.08284 60.7913 4.60751 61.1589 4.19556C61.5328 3.78995 61.9828 3.47306 62.5088 3.23223C63.0349 2.99774 63.6116 2.87732 64.239 2.87732C64.5179 2.87732 64.7904 2.91535 65.0756 2.99774C65.3545 3.08013 65.608 3.18153 65.8488 3.31462C66.0833 3.44771 66.2924 3.60616 66.4762 3.78361C66.66 3.96741 66.7995 4.15754 66.9135 4.34767V3.09914H69.6895V3.10548ZM64.8411 9.6967C65.158 9.6967 65.4369 9.63332 65.6904 9.5129C65.9439 9.39249 66.1594 9.23404 66.3431 9.03124C66.5269 8.82843 66.6664 8.59393 66.7678 8.32141C66.8692 8.04889 66.9199 7.75736 66.9199 7.45948C66.9199 7.16161 66.8628 6.87008 66.7678 6.61023C66.6727 6.35039 66.5206 6.10955 66.3431 5.90041C66.1594 5.69126 65.9439 5.52648 65.6904 5.4124C65.4369 5.29199 65.158 5.22861 64.8411 5.22861C64.5242 5.22861 64.2454 5.29199 63.9919 5.4124C63.7383 5.53282 63.5229 5.69126 63.3391 5.90041C63.1553 6.10955 63.0158 6.34405 62.9144 6.61023C62.813 6.87008 62.7623 7.16161 62.7623 7.45948C62.7623 7.75736 62.8194 8.04889 62.9144 8.32141C63.0158 8.59393 63.1616 8.82843 63.3391 9.03124C63.5229 9.22771 63.7383 9.39249 63.9919 9.5129C64.239 9.63332 64.5242 9.6967 64.8411 9.6967ZM75.5328 14H72.2879L73.847 10.8565L70.3422 3.10548H73.7646L75.4758 7.71933L77.6243 3.10548H80.8692L75.5328 14ZM38.0072 9.67135C37.8361 9.67135 37.684 9.65233 37.5383 9.61431C37.3925 9.57628 37.2657 9.50656 37.158 9.40516C37.0503 9.30376 36.9679 9.15165 36.9045 8.96152C36.8411 8.77139 36.8158 8.51154 36.8158 8.18198V5.07651H38.4319L39.4903 3.01041H36.8158V0L34.0525 1.48302V3.00407H32.6772V5.07017H34.0525V8.80308C34.0525 9.52558 34.1539 10.096 34.3504 10.5143C34.5469 10.9325 34.8004 11.2368 35.1109 11.4396C35.4215 11.636 35.7574 11.7628 36.1186 11.8135C36.4799 11.8579 36.8284 11.8832 37.1517 11.8832C37.5573 11.8832 37.9249 11.8642 38.2291 11.8388C38.5396 11.8135 38.7931 11.7755 39.0023 11.7374V9.61431C38.8692 9.63966 38.7107 9.65867 38.5333 9.65867C38.3495 9.67134 38.1784 9.67135 38.0072 9.67135ZM21.8778 2.99774C21.6623 2.91535 21.3961 2.86464 21.0919 2.86464C20.4771 2.86464 19.9321 3.01675 19.4504 3.33364C18.9688 3.65052 18.6329 4.01177 18.4237 4.42372V3.01041H15.6478V11.7374H18.4237V8.32775C18.4237 7.26935 18.6519 6.51517 19.1145 6.06519C19.5138 5.68493 20.0208 5.45677 20.6356 5.4124L21.8778 2.99774ZM8.3531 2.33861C7.45315 1.80625 6.41376 1.4957 5.29833 1.50204C2.92168 1.52739 0.893617 2.95971 0 5.00045L2.92802 7.87144L8.3531 2.33861ZM10.7234 5.00045L3.08646 12.7958C3.80263 13.0937 4.5885 13.2585 5.4124 13.2585C8.65731 13.2205 11.2558 10.5776 11.2304 7.33273C11.2177 6.49615 11.0403 5.71028 10.7234 5.00045ZM52.3431 4.25894C52.4509 4.06881 52.5967 3.87868 52.7804 3.69488C52.9642 3.51109 53.167 3.35899 53.4142 3.22589C53.6614 3.0928 53.9149 2.9914 54.1874 2.90901C54.4599 2.82662 54.7388 2.78859 55.0303 2.78859C55.6578 2.78859 56.2345 2.90901 56.7605 3.1435C57.2866 3.378 57.7365 3.69488 58.1105 4.10684C58.4844 4.51245 58.7696 4.99412 58.9787 5.55817C59.1879 6.12223 59.2893 6.72431 59.2893 7.37709C59.2893 8.02988 59.1879 8.6383 58.9787 9.19602C58.7696 9.76007 58.478 10.2354 58.1105 10.6474C57.7429 11.0593 57.2866 11.3699 56.7605 11.6107C56.2345 11.8452 55.6578 11.9656 55.0303 11.9656C54.7388 11.9656 54.4599 11.9276 54.1874 11.8452C53.9149 11.7628 53.6614 11.6614 53.4142 11.5283C53.167 11.3952 52.9642 11.2368 52.7804 11.0656C52.5967 10.8945 52.4572 10.7044 52.3431 10.4952V14H49.5672V3.01041H52.3431V4.25894ZM54.4473 5.14622C54.1304 5.14622 53.8515 5.2096 53.5853 5.33001C53.3192 5.45043 53.1037 5.60887 52.9262 5.81168C52.7424 6.00815 52.603 6.24898 52.5016 6.5215C52.4002 6.79402 52.3495 7.08556 52.3495 7.38343C52.3495 7.6813 52.4065 7.97284 52.5016 8.24536C52.603 8.51788 52.7488 8.75238 52.9262 8.95518C53.11 9.15165 53.3255 9.31643 53.5853 9.43685C53.8452 9.55727 54.1304 9.62064 54.4473 9.62064C54.7451 9.62064 55.0303 9.55727 55.2838 9.43685C55.5373 9.31643 55.7528 9.15799 55.9366 8.95518C56.1204 8.75872 56.2598 8.51788 56.3613 8.24536C56.4627 7.97284 56.5134 7.6813 56.5134 7.38343C56.5134 7.08556 56.4563 6.79402 56.3613 6.5215C56.2598 6.24898 56.1141 6.01449 55.9366 5.81168C55.7528 5.61521 55.5373 5.45043 55.2838 5.33001C55.024 5.2096 54.7515 5.14622 54.4473 5.14622Z" fill="black"/>
</svg>

<svg xmlns="http://www.w3.org/2000/svg" width="81" height="14" fill="none"><path fill="#000" d="M31.562 3.01v8.727h-2.776v-1.23q-.162.315-.437.571a2.9 2.9 0 0 1-.628.45 4 4 0 0 1-.773.31c-.279.083-.551.121-.837.121q-.94-.001-1.73-.355a4 4 0 0 1-1.35-.963 4.3 4.3 0 0 1-.868-1.451 5.2 5.2 0 0 1-.31-1.82c0-.652.1-1.26.31-1.818.21-.564.5-1.04.868-1.451a4.2 4.2 0 0 1 1.35-.964 4.1 4.1 0 0 1 1.73-.355c.28 0 .552.038.837.12.279.083.532.184.773.318q.352.2.628.469c.183.183.323.373.437.564V3.01zm-4.855 6.598c.317 0 .596-.063.85-.184q.378-.179.652-.481c.184-.197.323-.438.425-.71a2.47 2.47 0 0 0 0-1.712c-.102-.26-.247-.5-.425-.71a1.9 1.9 0 0 0-.653-.487 1.94 1.94 0 0 0-.849-.184 1.983 1.983 0 0 0-1.502.672 2.349 2.349 0 0 0-.577 1.56c0 .297.057.588.152.86.102.273.248.508.425.71.184.197.4.362.653.482.247.12.539.184.85.184m15.394-1.56c.007.26.057.52.12.755.064.235.172.444.324.615s.342.317.59.418c.247.102.544.152.906.152.481 0 .849-.101 1.096-.291q.37-.284.52-.71h2.719a3 3 0 0 1-.425 1.16c-.228.36-.52.678-.887.95a4.5 4.5 0 0 1-1.306.647 5.8 5.8 0 0 1-1.692.234c-.76 0-1.432-.107-2.022-.336a4.1 4.1 0 0 1-1.476-.95c-.4-.406-.697-.9-.907-1.458a5.3 5.3 0 0 1-.31-1.857q.001-.968.298-1.793c.196-.552.5-1.04.887-1.458s.88-.742 1.451-.989c.57-.247 1.242-.361 2.003-.361.69 0 1.306.108 1.857.323a4.4 4.4 0 0 1 1.413.868c.387.362.697.786.907 1.268q.315.723.316 1.521c0 .184 0 .374-.006.583-.006.21-.038.444-.082.71zm1.87-3.428c-.545 0-.989.152-1.344.47-.355.316-.526.772-.526 1.355h3.664c0-.57-.165-1.014-.501-1.343-.336-.317-.767-.482-1.293-.482M69.69 3.105v8.728h-2.776v-1.23q-.162.315-.438.57a2.9 2.9 0 0 1-.627.45 4 4 0 0 1-.773.31c-.28.083-.552.121-.837.121q-.94-.001-1.73-.355a4 4 0 0 1-1.35-.963 4.3 4.3 0 0 1-.868-1.451 5.2 5.2 0 0 1-.31-1.82c0-.652.1-1.26.31-1.818.209-.564.5-1.04.868-1.451a4.2 4.2 0 0 1 1.35-.964 4.2 4.2 0 0 1 1.73-.355c.279 0 .551.038.837.12.279.083.532.185.773.318q.351.2.627.469c.184.183.323.374.438.564V3.099h2.775zM64.84 9.697c.317 0 .596-.064.85-.184q.378-.179.652-.482c.184-.203.323-.437.425-.71a2.47 2.47 0 0 0 0-1.71c-.095-.26-.247-.501-.425-.71a1.9 1.9 0 0 0-.653-.489 1.94 1.94 0 0 0-.849-.183 1.983 1.983 0 0 0-1.502.672 2.349 2.349 0 0 0-.577 1.56c0 .296.057.588.152.86.102.273.248.507.425.71.184.197.4.361.653.482.247.12.532.184.85.184M75.533 14h-3.245l1.559-3.143-3.505-7.752h3.423l1.71 4.614 2.15-4.614h3.244zM38.007 9.671c-.17 0-.323-.019-.469-.057a.86.86 0 0 1-.38-.209 1.06 1.06 0 0 1-.254-.443c-.063-.19-.088-.45-.088-.78V5.077h1.616L39.49 3.01h-2.674V0l-2.764 1.483v1.521h-1.375V5.07h1.376v3.733q0 1.084.297 1.711c.197.418.45.723.76.926q.467.296 1.009.373c.36.045.71.07 1.033.07.405 0 .773-.019 1.077-.044.31-.026.564-.064.773-.102V9.614a2.5 2.5 0 0 1-.469.045 8 8 0 0 1-.526.012m-16.13-6.673a2.2 2.2 0 0 0-.785-.133c-.615 0-1.16.152-1.642.469-.481.317-.817.678-1.026 1.09V3.01h-2.776v8.727h2.776v-3.41q-.001-1.587.69-2.262c.4-.38.907-.608 1.522-.653zm-13.524-.66a5.9 5.9 0 0 0-3.055-.836A5.85 5.85 0 0 0 0 5l2.928 2.871zM10.723 5l-7.637 7.796a6 6 0 0 0 2.326.463 5.88 5.88 0 0 0 5.818-5.926A5.9 5.9 0 0 0 10.723 5m41.62-.741q.162-.287.437-.564c.184-.184.387-.336.634-.47.247-.132.5-.234.773-.316q.408-.121.843-.12.942.002 1.73.354c.527.235.977.552 1.35.964.374.405.66.887.869 1.451s.31 1.166.31 1.82q.002.98-.31 1.818c-.21.564-.501 1.04-.868 1.451-.368.412-.824.723-1.35.964a4.2 4.2 0 0 1-1.73.355q-.436.001-.844-.12a4 4 0 0 1-.773-.318 3 3 0 0 1-.634-.462 2.2 2.2 0 0 1-.437-.57V14h-2.776V3.01h2.776zm2.104.887a2.04 2.04 0 0 0-1.945 1.375 2.5 2.5 0 0 0-.153.862c0 .298.058.59.153.862.101.273.247.507.424.71a2.02 2.02 0 0 0 1.521.665c.298 0 .583-.063.837-.183q.378-.179.653-.482a2.1 2.1 0 0 0 .424-.71c.102-.272.152-.564.152-.862 0-.297-.057-.589-.152-.862a2.3 2.3 0 0 0-.424-.71 2.2 2.2 0 0 0-.653-.481 1.95 1.95 0 0 0-.837-.184"/></svg>
